icon-themes/sifr_svg/cmd/lc_open.svg

<svg xmlns="http://www.w3.org/2000/svg" viewBox="0 0 24 24">
 <path
     style="fill:#555753"
     d="M 9 2.0058594 C 7.89543 2.0060694 7.007911 2.9017594 7 4.0058594 L 7 13.001953 L 9 13.001953 L 9 6.0039062 L 9 4.0058594 L 15 4 L 15 9 L 20 9.0019531 L 20 13 L 22 13 L 22 9.0019531 L 22 8.6894531 C 22.009 8.3023731 21.68178 7.9070962 21.40625 7.6289062 L 16.0625 2.4121094 C 15.77786 2.1428194 15.39605 1.9968994 15 2.0058594 L 9 2.0058594 z M 5 7.9707031 C 3.822965 8.0070031 4.177364 7.9870531 3 8.0019531 C 1.895431 8.0019531 1 8.8978331 1 10.001953 L 1 20.998047 C 1 22.102167 1.895431 22.996094 3 22.996094 L 19 22.996094 L 20 22.996094 C 21.108 22.996094 21.73127 22.072527 22 20.998047 L 23 17 C 23.268731 15.92552 22.108 15 21 15 L 14 15 L 6 15 L 4.65625 20.373047 C 4.56174 20.736017 4.236463 20.998047 3.84375 20.998047 C 3.377346 20.998087 3 20.620507 3 20.154297 L 3 19.998047 C 2.9936 18.297127 2.9979 15.55803 3 14 C 3 12.89588 3.89543 12.001953 5 12.001953 L 5 11.970703 L 5 7.9707031 z "
     />
 <path
     style="fill:#ffffff"
     d="M 15 4 L 9 4.0058594 L 9 6.0039062 L 9 13 L 20 13 L 20 9.0019531 L 15 9 L 15 4 z "
     />
 </svg>

<?xml version="1.0" encoding="UTF-8" standalone="no"?>
<svg
   xmlns:dc="http://purl.org/dc/elements/1.1/"
   xmlns:cc="http://creativecommons.org/ns#"
   xmlns:rdf="http://www.w3.org/1999/02/22-rdf-syntax-ns#"
   xmlns:svg="http://www.w3.org/2000/svg"
   xmlns="http://www.w3.org/2000/svg"
   xmlns:sodipodi="http://sodipodi.sourceforge.net/DTD/sodipodi-0.dtd"
   xmlns:inkscape="http://www.inkscape.org/namespaces/inkscape"
   viewBox="0 0 24 24"
   version="1.1"
   id="svg5"
   sodipodi:docname="lc_open.svg"
   inkscape:version="0.92.1 r15371"
   inkscape:export-filename="/home/matthias/GIT/icons/sifr_svg/lc_open.png"
   inkscape:export-xdpi="96"
   inkscape:export-ydpi="96">
  <defs
     id="defs9" />
  <sodipodi:namedview
     pagecolor="#ffffff"
     bordercolor="#666666"
     borderopacity="1"
     objecttolerance="10"
     gridtolerance="10"
     guidetolerance="10"
     inkscape:pageopacity="0"
     inkscape:pageshadow="2"
     inkscape:window-width="1920"
     inkscape:window-height="1007"
     id="namedview7"
     showgrid="true"
     inkscape:zoom="13.906433"
     inkscape:cx="-0.29615455"
     inkscape:cy="13.883874"
     inkscape:window-x="0"
     inkscape:window-y="44"
     inkscape:window-maximized="1"
     inkscape:current-layer="svg5">
    <inkscape:grid
       type="xygrid"
       id="grid4486" />
  </sodipodi:namedview>
  <metadata
     id="metadata7838">
    <rdf:RDF>
      <cc:Work
         rdf:about="">
        <dc:format>image/svg+xml</dc:format>
        <dc:type
           rdf:resource="http://purl.org/dc/dcmitype/StillImage" />
        <dc:title />
        <cc:license
           rdf:resource="http://creativecommons.org/licenses/by-sa/4.0/" />
        <dc:rights>
          <cc:Agent>
            <dc:title>The Document Foundation</dc:title>
          </cc:Agent>
        </dc:rights>
        <dc:contributor>
          <cc:Agent>
            <dc:title>Matthias Freund</dc:title>
          </cc:Agent>
        </dc:contributor>
      </cc:Work>
      <cc:License
         rdf:about="http://creativecommons.org/licenses/by-sa/3.0/">
        <cc:permits
           rdf:resource="http://creativecommons.org/ns#Reproduction" />
        <cc:permits
           rdf:resource="http://creativecommons.org/ns#Distribution" />
        <cc:requires
           rdf:resource="http://creativecommons.org/ns#Notice" />
        <cc:requires
           rdf:resource="http://creativecommons.org/ns#Attribution" />
        <cc:permits
           rdf:resource="http://creativecommons.org/ns#DerivativeWorks" />
        <cc:requires
           rdf:resource="http://creativecommons.org/ns#ShareAlike" />
      </cc:License>
    </rdf:RDF>
  </metadata>
  <path
     style="display:inline;fill:#555753;fill-opacity:1;stroke:none"
     d="m 5,7.97165 c -1.177035,0.0363 -0.822636,0.0163 -2,0.0312 -1.104569,0 -2,0.89506 -2,1.99918 v 10.99552 c 0,1.10412 0.895431,1.99919 2,1.99919 h 16 1 c 1.108,0 1.73127,-0.92471 2,-1.99919 l 1,-3.99837 C 23.268731,15.9247 22.108,15 21,15 H 14 6 L 4.65625,20.37281 C 4.56174,20.73578 4.236463,20.99755 3.84375,20.99755 3.377346,20.99759 3,20.6204 3,20.15419 V 19.998 C 2.9936,18.29708 2.9979,15.55847 3,14.00044 3,12.89632 3.89543,12.00126 5,12.00126 v -0.0312 z"
     id="rect3845-5-8-5"
     inkscape:connector-curvature="0"
     sodipodi:nodetypes="ccssscsssscccscccccc" />
  <path
     style="opacity:1;fill:#ffffff;fill-opacity:1;fill-rule:evenodd;stroke:none;stroke-width:4.45078897;stroke-linecap:square;stroke-linejoin:round;stroke-miterlimit:4;stroke-dasharray:none;stroke-opacity:1;paint-order:normal"
     d="m 8,3 h 7.891925 L 21,8 v 5 H 8 Z"
     id="rect4490"
     inkscape:connector-curvature="0"
     sodipodi:nodetypes="cccccc" />
  <path
     style="color:#000000;font-style:normal;font-variant:normal;font-weight:normal;font-stretch:normal;font-size:medium;line-height:normal;font-family:Sans;-inkscape-font-specification:Sans;text-indent:0;text-align:start;text-decoration:none;text-decoration-line:none;letter-spacing:normal;word-spacing:normal;text-transform:none;writing-mode:lr-tb;direction:ltr;baseline-shift:baseline;text-anchor:start;display:inline;overflow:visible;visibility:visible;fill:#555753;fill-opacity:1;stroke:none;stroke-width:1.99999988;marker:none;enable-background:accumulate"
     d="m 9.000004,2.0064899 c -1.10457,2.1e-4 -1.992089,0.89509 -2,1.99919 V 13.00201 h 2 V 6.0048599 4.0056799 L 15,4 v 5 l 5,0.00245 v 3.99838 h 2 V 9.00245 8.69008 C 22.009,8.303 21.68178,7.9062 21.40625,7.62801 L 16.0625,2.4113899 C 15.77786,2.1420999 15.39605,1.9963399 15,2.0052999 Z"
     id="path4813-7"
     inkscape:connector-curvature="0"
     sodipodi:nodetypes="ssccccccccccccccs" />
</svg>
